src/img/icons/question.svg

<svg width="24" height="24" viewBox="0 0 24 24" fill="none" xmlns="http://www.w3.org/2000/svg">
    <path fill-rule="evenodd" clip-rule="evenodd" d="M12 3C7.02944 3 3 7.02944 3 12C3 16.9706 7.02944 21 12 21C16.9706 21 21 16.9706 21 12C21 7.02944 16.9706 3 12 3ZM1 12C1 5.92487 5.92487 1 12 1C18.0751 1 23 5.92487 23 12C23 18.0751 18.0751 23 12 23C5.92487 23 1 18.0751 1 12Z" fill="#4099F1"/>
    <path d="M10.6253 14.4309H12.692V14.2822C12.7044 13.0696 13.1327 12.5148 14.1443 11.9428C15.2863 11.3136 16 10.4557 16 9.14585C16 7.21258 14.3677 6 11.9969 6C9.82467 6 8.06206 7.10963 8 9.28313H10.2095C10.2653 8.20782 11.1094 7.69304 11.9845 7.69304C12.9341 7.69304 13.6974 8.27645 13.6974 9.17445C13.6974 9.97521 13.1202 10.5243 12.3693 10.959C11.2708 11.5882 10.6377 12.2231 10.6253 14.2822V14.4309ZM11.7114 18C12.4438 18 13.0706 17.4395 13.0768 16.7417C13.0706 16.0553 12.4438 15.4948 11.7114 15.4948C10.9542 15.4948 10.3398 16.0553 10.346 16.7417C10.3398 17.4395 10.9542 18 11.7114 18Z" fill="#4099F1"/>
</svg>

<svg width="24" height="24" fill="none" xmlns="http://www.w3.org/2000/svg"><path fill-rule="evenodd" clip-rule="evenodd" d="M12 3a9 9 0 100 18 9 9 0 000-18zM1 12C1 5.925 5.925 1 12 1s11 4.925 11 11-4.925 11-11 11S1 18.075 1 12z" fill="#4099F1"/><path d="M10.625 14.43h2.067v-.148c.012-1.212.44-1.767 1.452-2.34C15.286 11.315 16 10.457 16 9.147 16 7.213 14.368 6 11.997 6 9.825 6 8.062 7.11 8 9.283h2.21c.055-1.075.9-1.59 1.774-1.59.95 0 1.713.583 1.713 1.481 0 .801-.577 1.35-1.328 1.785-1.098.63-1.731 1.264-1.744 3.323v.149zM11.711 18c.733 0 1.36-.56 1.366-1.258-.006-.687-.633-1.247-1.366-1.247-.757 0-1.371.56-1.365 1.247-.006.697.608 1.258 1.365 1.258z" fill="#4099F1"/></svg>
